X: 308
T:Elzic's Farewell
R:Reel
C:Portland Collection
M:C|
L:1/8
Q:1/4=240
K:G
P:A
"Am"e4 e2d2|c3d cBA2|a3b agef|"G"geae gdcd|!
"Am"e4e2d2|c3d cBA2|AGAB AGED|"G"EGAB "Am"A4:|!
P:B
"Am"ABAG EGAB| cBcd eged|cBAc "G"BAG2|"Am"EGABA4|!
"Am"ABAG EGAB|cBcd eged|cBAc "G"BAG2|"Am"EGABA4||!
P:C
|:"Am"A,4A,B,C2|"D"D2DE DCA,C|D2DE DCA,C|DEDC A,2G,2|!
|"Am"A,4A,B,C2|"D"D2DE DCA,C|DEDC A,B,A,C|DEDC"Am"A,4:|

